X: 38305
T: St. Sinneach's March
R: polka
M: 2/4
K: Gmajor
|:B>B BG|c>c cA|d>^c de|fd f/g/a|
gf dB|c2 d>c|BG AF|DE F/E/D|
B>B BG|c>c cA|d>^c de|fd f/g/a|
gf dB|c2 d(3c/d/c/|AD FA|1 G3 D/G/:|2 G2 de||
|:ff fd|gg/f/ ga|bg a(3g/a/g/|fd f/g/a|
gf dB|c2 dc|BG AF|DE FD|
B>B BG|c>c cA|d>^c de|fd f/g/a|
gf dB|c2 d(3c/d/c/|AD FA|1 G2 de:|2 G2 DG||

